X:189
T:Varshaver freylekhs
O:klezmer
M:2/4
L:1/8
Q:1/4=117
K:Dm
V:1
A,D2 F|A D"Gm" B D|"Dm" A D"D" ^G D|"Dm"  (3FED A2 |
A,D2 F|^G AB c| (3Bcd  (3cBA | (3A^GF "A7" A2 |
A,D2 F|A D"Gm" B D|"Dm" A D"D" ^G D|"Dm"  (3FED A2 |
A,B, ^CD |EF ^GA | (3A^GF  (3FED |"Dm" D4
|]B/d/c2 B|d2  (3cBA |^G/B/A2 ^G| (3A^GF  (3FED |
B/d/c2 B|d2  (3cBA |A4 |d4 |
B/d/c2 B|d2  (3cBA |^G/B/A2 ^G| (3A^GF  (3FED |
A,B, ^CD |EF ^GA | (3A^GF  (3FED |"Dm" D4  |:
K:D
"D" [DA][F2d2][Af]|[G_e][Fd][A2f2]|[A3/2f3/2][B/g/][(3=ca][B(3g][Af]|[G_e][Fd][A2f2]|
[DA][F2d2][Af]|[G_e][Fd][A2f2]|"A7" [E3/2c3/2][F/d/][(3Ge][F(3d][Ec]|"D" [D4d4]:|
V:2          %2e stem
K:Dm
AF2 ^G|A F2 ^G|A F2 ^G|A2 F2 |
AF2 D|E F^G A|^G2 F2 |D2 ^C2 |
AF2 ^G|A F2 ^G|A F2 ^G|A2 F2 |
ED ^CB, |A,2 ^C2 | (3FED A,2 |D4 |]
d4 |c4 |B4 |A4 |
^G4 |F4 |E4 |D4 |
[A2D2][AD][(A(D]|[A)D)][AD][AD][AD]|[A2D2][AD][(A(D]|[A)D)][AD][AD][AD]|
[A2E2][AE][(A(E]|[A)E)][AE][AE][AE]|[A2D2][A2^C2]|[A4D4] |:
K:D
DD2 F|_E DF2 |F3/2 G/ (3AGF |_ED F2 |
DD2 F|_E DF2 |G3/2 A/ (3_BAG |F4 :|





